X: 442
T: Johnnie Walker
C: Bert Murray
R: jig
B: Bert Murray's "Bon Accord Collection" 1999 p.44
%
Z: 2011 John Chambers <jc:trillian.mit.edu>
M: 6/8
L: 1/8
K: D
|: uF |\
D>FA d2d | B>AG F>ED | =C>EG =c>Bc | G>AG G>E=C |\
D>FA d2d | B>cd A>FA | B>cd c>de | f>dd d2 :|
|: uA |\
d>fd A>FA | B>GB A>FD | A,>DF A>dF | G>EE (E2A) |\
d>fd A>FA | B>dB A>FA | B>cd c>de | f>dd d2 :|

%%sep 2 1 500

